!!!COM: Fanny (Mendelssohn) Hensel
!!!CNT: Deutsch
!!!TXO: Deutsch
!!!OTL: "Nach Su2den"
!!!LYR: 
!!!OPR: 
!!!OPS: Op. 10
!!!ONM: No. 1
!!!ENC: Emily Thomas
!!!YOR: Hensel: Ausgewa2hlte Lieder fu2r Singstimme und Klavier
!!!YOR: Breitkopf & Hartel, 1994
!!!ODT: 1841/
!!NB: Vocal melody and text encoded.
**kern	**silbe
=1-	=1
*clefG2	*
*k[f#c#g#d#]	*
*M12/8	*
*MM[Allegro molto vivace]	*
2.r	.
4r	.
8r	.
4r	.
{8b	{Von
=2	=2
4.b	al-
4cc#	|
8dd#	-len
[4.ee	Zwei-
4ee]	|
8cc#	-gen
=3	=3
2.b	schwin-
4.a	-gen
4.g#	sich
=4	=4
4.f#	wan-
4a	-dern-
8cc#	-de
4.ff#	Vo2-
4ee	-gel
8ff#	em
=5	=5
4.gg#}	-por,}
4r	.
8r	.
2.r	.
=6	=6
{4.ee	{weit
4dd#	durch
8ee	die
4.ff#	Lu2f-
4.ee	-te
=7	=7
4.ee	klin-
4.dd#	|
4.cc#	-gen
4.b	|
=8	=8
4.ee	ho2rt
4dd#	man
8ee	den
4.ff#	rei-
4.ee	-se-
=9	=9
2.dd#	-chor,
2.ddn}	|}
=10	=10
{4.cc#	{weit
4b#	durch
8cc#	die
4.ee	Lu2f-
4.cc#	-te
=11	=11
4.cc#	klin-
4.b	|
4.a	-gen
4.g#	|
=12	=12
4.cc#	ho2rt
4b#	man
8cc#	den
4.ee	Rei-
4.cc#	-se-
=13	=13
4b.}	-chor,}
4r	.
8r	.
4r	.
8r	.
4r	.
{8b	{nach
=14	=14
[2.ee	Su2-
4.ee]	|
4.cc#	|
=15	=15
4.a#	-den,
4r	.
8r	.
4r	.
8r	.
4.f#	nach
=16	=16
[2.ff#	Su2-
4.ff#]	|
4.ee	|
=17	=17
4.dd#}	-den,}
4r	.
8r	.
4r	.
8r	.
{4b	{in
8b	den
=18	=18
*M4/4	*
2gg#	e-
8ff#	-wi-
8ee	|
8dd#	-gen,
8cc#	|
=19	=19
4b	e-
4b#	|
4cc#	-wi-
4ee	-gen
=20	=20
2.f#	Blu-
4b	-men-
=21	=21
2a#}	-flor,}
2r	.
=22	=22
2r	.
4r	.
{8f#	{in
8f#	den
=23	=23
2ff#	e-
8ee	-wi-
8dd#	|
8cc#	-gen,
8b	|
=24	=24
4gg#	e-
4ee	|
4b	-wi-
4g#}	-gen,}
=25	=25
{1e	{e-
=26	=26
[1ee	|
=27	=27
4ee]	|
4b	|
4g#	-wi-
4e	-gen
=28	=28
2.g#	Blu-
4f#	-men-
=29	=29
4e}	-flor.}
4r	.
2r	.
=30	=30
1r	.
=31	=31
1r	.
=32	=32
2r	.
4r	.
8r	.
{8b	{Ihr
=33	=33
*M12/8	*
4.b	Vo2g-
4cc#	-lein
8dd#	singt
4.ee	mun-
4cc#	-ter
8b	her-
=34	=34
2.b	-nie-
4.a	-der,
4.g#	wir
=35	=35
4.f#	sin-
4a	|
8cc#	-gen
4.ff#	lu-
4ee	-stig
8ff#	hin-
=36	=36
4.gg#}	-aus,}
4r	.
8r	.
2.r	.
=37	=37
{4.ee	{wenn
4dd#	der
8ee	|
4.ff#	Lenz
4.ee	kommt,
=38	=38
4.ee	keh-
4dd#	-ren
8dd#	wir
4.cc#	wie-
4.b	-der,
=39	=39
4.ee	wie-
4dd#	-der
8ee	in
4.ff#	nest
4.ee	und
=40	=40
2.dd#	Haus,
2.ddn}	|}
=41	=41
{4.cc#	{wenn
4b#	der
8cc#	|
4.ee	Lenz
4.cc#	kommt,
=42	=42
4.cc#	keh-
4b	-ren
8b	wir
4.a	wie-
4.g#	-der,
=43	=43
4.cc#	wie-
4b#	-der
8cc#	in
4.ee	Nest
4.cc#	und
=44	=44
4.b}	Haus}
4r	.
8r	.
4r	.
8r	.
4r	.
{8ee	{von
=45	=45
[2.ee	Su2-
4.ee]	|
4.cc#	|
=46	=46
4.a#}	-den,}
4r	.
8r	.
4r	.
8r	.
{4.f#	{von
=47	=47
[2.ff#	Su2-
4.ff#]	|
4.ee	|
=48	=48
4.dd#}	-den!}
4r	.
8r	.
4r	.
8r	.
{4.a	{Jetzt
=49	=49
2.g#	a-
4.a	-ber,
4.b	jetzt
=50	=50
2.cc#	a-
4.dd#	-ber
4.ee	hin-
=51	=51
4.b	-aus,
4r	.
8r	.
4r	.
8r	.
4r	.
8b	hin-
=52	=52
4.ee	-aus,
4r	.
8r	.
4r	.
8r	.
4r	.
8g#	hin-
=53	=53
4.cc#	-aus,
4r	.
8r	.
4r	.
8r	.
4r	.
8ee	hin-
=54	=54
2.gg#}	-aus!}
2.r	.
=55	=55
{2.ee	{jetzt
4ff#	a-
8ee	|
4dd#	-ber
8cc#	hin
=56	=56
2.b	-aus!
4.cc#	|
4.dd#	|
=57	=57
4.ee	|
4.ee#	|
4.ff#	|
4.gg#	|
=58	=58
4.aa	|
4r	.
8r	.
4r	.
8r	.
4r	.
8dd#	hin-
=59	=59
4.ee}	-aus!}
4r	.
8r	.
2.r	.
==	==
*-	*-
